.local/share/icons/Gruvbox-Plus-Dark/panel/22/rto-proxy-tray.svg

<svg xmlns="http://www.w3.org/2000/svg" width="22" height="22" version="1.1">
 <defs>
  <style id="current-color-scheme" type="text/css">
   .ColorScheme-Text { color:#ebdbb2; } .ColorScheme-Highlight { color:#458588; }
  </style>
 </defs>
 <path style="fill:currentColor" class="ColorScheme-Text" d="M 11,3.0000002 C 6.5817221,3.0000003 3.0000002,6.5817221 3.0000001,11 c 0,4.418278 3.5817219,8 7.9999999,8 4.418278,0 8,-3.581722 8,-8 C 19,6.5817221 15.418278,3.0000002 11,3.0000002 Z M 11,5.5000001 12.544922,8.7910157 16,9.3203126 13.5,11.882813 14.089844,15.5 11,13.791016 7.9101561,15.5 l 0.589844,-3.617187 -2.5,-2.5625004 3.455078,-0.5292969 z"/>
</svg>

<svg width="22" height="22" version="1.1" xmlns="http://www.w3.org/2000/svg">
  <defs>
    <style id="current-color-scheme" type="text/css">.ColorScheme-Text { color:#ebdbb2; } .ColorScheme-Highlight { color:#458588; } .ColorScheme-NeutralText { color:#fe8019; } .ColorScheme-PositiveText { color:#689d6a; } .ColorScheme-NegativeText { color:#fb4934; }</style>
  </defs>
  <path class="ColorScheme-Text" d="m11 3c-4.418 1e-7 -8 3.582-8 8 0 4.418 3.582 8 8 8s8-3.582 8-8c0-4.418-3.582-8-8-8zm0 2.5 1.545 3.291 3.455 0.5293-2.5 2.563 0.5898 3.617-3.09-1.709-3.09 1.709 0.5898-3.617-2.5-2.563 3.455-0.5293z" fill="currentColor"/>
</svg>
